packages/foundations/assets/icons/functional/images/date & time/calendar.svg

<svg xmlns="http://www.w3.org/2000/svg" width="32" height="32" fill="none"><path fill="#1A1C1F" fill-rule="evenodd" d="M11.529 5.128c-.135.067-.29.203-.373.329-.132.198-.144.266-.161.872l-.019.658-1.501.001c-.826.001-1.676.025-1.888.052-1.172.152-2.19 1.06-2.489 2.221-.075.291-.085 1.147-.085 7.735 0 8.163-.019 7.679.334 8.391.23.462.804 1.036 1.266 1.266.715.355.125.334 9.387.334s8.672.021 9.387-.334c.462-.23 1.036-.804 1.266-1.266.353-.712.334-.228.334-8.391 0-6.588-.01-7.444-.085-7.735-.299-1.161-1.317-2.069-2.489-2.221-.212-.027-1.062-.051-1.888-.052l-1.501-.001-.019-.658c-.017-.607-.029-.673-.161-.873-.385-.58-1.303-.58-1.688 0-.132.2-.144.266-.161.873l-.019.658h-5.952l-.019-.658c-.017-.607-.029-.673-.161-.873-.274-.414-.851-.558-1.315-.328m-.534 4.543c.017.607.029.673.161.873.385.58 1.303.58 1.688 0 .132-.2.144-.266.161-.873l.019-.658h5.952l.019.658c.017.607.029.673.161.873.385.58 1.303.58 1.688 0 .132-.2.144-.266.162-.876l.018-.659 1.666.016 1.665.015.193.132c.106.073.248.229.316.347.12.209.123.255.139 1.854l.017 1.64H6.98l.017-1.64c.018-1.769.024-1.811.324-2.098.256-.246.348-.257 2.047-.26l1.608-.002zm14.006 9.969c-.013 4.277-.022 4.667-.106 4.82a1.1 1.1 0 0 1-.617.498c-.275.076-16.281.076-16.556 0a1.1 1.1 0 0 1-.617-.498c-.084-.153-.093-.543-.106-4.82l-.015-4.653h18.032zM9.536 17.122c-.323.171-.489.436-.51.818-.022.386.078.61.382.856.161.131.255.163.527.178.392.023.614-.076.864-.385.146-.18.161-.235.161-.585 0-.34-.018-.409-.15-.582-.298-.391-.854-.522-1.274-.3m4 0c-.323.171-.489.436-.51.818-.022.386.078.61.382.856.161.131.255.163.527.178.392.023.614-.076.864-.385.146-.18.161-.235.161-.585 0-.34-.018-.409-.15-.582-.298-.391-.854-.522-1.274-.3m4 0c-.323.171-.489.436-.51.818-.022.386.078.61.382.856.161.131.255.163.527.178.392.023.614-.076.864-.385.146-.18.161-.235.161-.585 0-.34-.018-.409-.15-.582-.298-.391-.854-.522-1.274-.3m4 0c-.323.171-.489.436-.51.818-.022.386.078.61.382.856.161.131.255.163.527.178.392.023.614-.076.864-.385.146-.18.161-.235.161-.585 0-.34-.018-.409-.15-.582-.298-.391-.854-.522-1.274-.3m-12 4c-.323.171-.489.436-.51.818-.022.386.078.61.382.856.161.131.255.163.527.178.392.023.614-.076.864-.385.146-.18.161-.235.161-.585 0-.34-.018-.409-.15-.582-.298-.391-.854-.522-1.274-.3m4 0c-.323.171-.489.436-.51.818-.022.386.078.61.382.856.161.131.255.163.527.178.392.023.614-.076.864-.385.146-.18.161-.235.161-.585 0-.34-.018-.409-.15-.582-.298-.391-.854-.522-1.274-.3m4 0c-.323.171-.489.436-.51.818-.022.386.078.61.382.856.161.131.255.163.527.178.392.023.614-.076.864-.385.146-.18.161-.235.161-.585 0-.34-.018-.409-.15-.582-.298-.391-.854-.522-1.274-.3m4 0c-.323.171-.489.436-.51.818-.022.386.078.61.382.856.161.131.255.163.527.178.392.023.614-.076.864-.385.146-.18.161-.235.161-.585 0-.34-.018-.409-.15-.582-.298-.391-.854-.522-1.274-.3"/></svg>

<svg width="32" height="32" viewBox="0 0 32 32" fill="none" xmlns="http://www.w3.org/2000/svg"><path d="M11.529 5.128 C 11.394 5.195,11.239 5.331,11.156 5.457 C 11.024 5.655,11.012 5.723,10.995 6.329 L 10.976 6.987 9.475 6.988 C 8.649 6.989,7.799 7.013,7.587 7.040 C 6.415 7.192,5.397 8.100,5.098 9.261 C 5.023 9.552,5.013 10.408,5.013 16.996 C 5.013 25.159,4.994 24.675,5.347 25.387 C 5.577 25.849,6.151 26.423,6.613 26.653 C 7.328 27.008,6.738 26.987,16.000 26.987 C 25.262 26.987,24.672 27.008,25.387 26.653 C 25.849 26.423,26.423 25.849,26.653 25.387 C 27.006 24.675,26.987 25.159,26.987 16.996 C 26.987 10.408,26.977 9.552,26.902 9.261 C 26.603 8.100,25.585 7.192,24.413 7.040 C 24.201 7.013,23.351 6.989,22.525 6.988 L 21.024 6.987 21.005 6.329 C 20.988 5.722,20.976 5.656,20.844 5.456 C 20.459 4.876,19.541 4.876,19.156 5.456 C 19.024 5.656,19.012 5.722,18.995 6.329 L 18.976 6.987 16.000 6.987 L 13.024 6.987 13.005 6.329 C 12.988 5.722,12.976 5.656,12.844 5.456 C 12.570 5.042,11.993 4.898,11.529 5.128 M10.995 9.671 C 11.012 10.278,11.024 10.344,11.156 10.544 C 11.541 11.124,12.459 11.124,12.844 10.544 C 12.976 10.344,12.988 10.278,13.005 9.671 L 13.024 9.013 16.000 9.013 L 18.976 9.013 18.995 9.671 C 19.012 10.278,19.024 10.344,19.156 10.544 C 19.541 11.124,20.459 11.124,20.844 10.544 C 20.976 10.344,20.988 10.278,21.006 9.668 L 21.024 9.009 22.690 9.025 L 24.355 9.040 24.548 9.172 C 24.654 9.245,24.796 9.401,24.864 9.519 C 24.984 9.728,24.987 9.774,25.003 11.373 L 25.020 13.013 16.000 13.013 L 6.980 13.013 6.997 11.373 C 7.015 9.604,7.021 9.562,7.321 9.275 C 7.577 9.029,7.669 9.018,9.368 9.015 L 10.976 9.013 10.995 9.671 M25.001 19.640 C 24.988 23.917,24.979 24.307,24.895 24.460 C 24.771 24.687,24.518 24.891,24.278 24.958 C 24.003 25.034,7.997 25.034,7.722 24.958 C 7.482 24.891,7.229 24.687,7.105 24.460 C 7.021 24.307,7.012 23.917,6.999 19.640 L 6.984 14.987 16.000 14.987 L 25.016 14.987 25.001 19.640 M9.536 17.122 C 9.213 17.293,9.047 17.558,9.026 17.940 C 9.004 18.326,9.104 18.550,9.408 18.796 C 9.569 18.927,9.663 18.959,9.935 18.974 C 10.327 18.997,10.549 18.898,10.799 18.589 C 10.945 18.409,10.960 18.354,10.960 18.004 C 10.960 17.664,10.942 17.595,10.810 17.422 C 10.512 17.031,9.956 16.900,9.536 17.122 M13.536 17.122 C 13.213 17.293,13.047 17.558,13.026 17.940 C 13.004 18.326,13.104 18.550,13.408 18.796 C 13.569 18.927,13.663 18.959,13.935 18.974 C 14.327 18.997,14.549 18.898,14.799 18.589 C 14.945 18.409,14.960 18.354,14.960 18.004 C 14.960 17.664,14.942 17.595,14.810 17.422 C 14.512 17.031,13.956 16.900,13.536 17.122 M17.536 17.122 C 17.213 17.293,17.047 17.558,17.026 17.940 C 17.004 18.326,17.104 18.550,17.408 18.796 C 17.569 18.927,17.663 18.959,17.935 18.974 C 18.327 18.997,18.549 18.898,18.799 18.589 C 18.945 18.409,18.960 18.354,18.960 18.004 C 18.960 17.664,18.942 17.595,18.810 17.422 C 18.512 17.031,17.956 16.900,17.536 17.122 M21.536 17.122 C 21.213 17.293,21.047 17.558,21.026 17.940 C 21.004 18.326,21.104 18.550,21.408 18.796 C 21.569 18.927,21.663 18.959,21.935 18.974 C 22.327 18.997,22.549 18.898,22.799 18.589 C 22.945 18.409,22.960 18.354,22.960 18.004 C 22.960 17.664,22.942 17.595,22.810 17.422 C 22.512 17.031,21.956 16.900,21.536 17.122 M9.536 21.122 C 9.213 21.293,9.047 21.558,9.026 21.940 C 9.004 22.326,9.104 22.550,9.408 22.796 C 9.569 22.927,9.663 22.959,9.935 22.974 C 10.327 22.997,10.549 22.898,10.799 22.589 C 10.945 22.409,10.960 22.354,10.960 22.004 C 10.960 21.664,10.942 21.595,10.810 21.422 C 10.512 21.031,9.956 20.900,9.536 21.122 M13.536 21.122 C 13.213 21.293,13.047 21.558,13.026 21.940 C 13.004 22.326,13.104 22.550,13.408 22.796 C 13.569 22.927,13.663 22.959,13.935 22.974 C 14.327 22.997,14.549 22.898,14.799 22.589 C 14.945 22.409,14.960 22.354,14.960 22.004 C 14.960 21.664,14.942 21.595,14.810 21.422 C 14.512 21.031,13.956 20.900,13.536 21.122 M17.536 21.122 C 17.213 21.293,17.047 21.558,17.026 21.940 C 17.004 22.326,17.104 22.550,17.408 22.796 C 17.569 22.927,17.663 22.959,17.935 22.974 C 18.327 22.997,18.549 22.898,18.799 22.589 C 18.945 22.409,18.960 22.354,18.960 22.004 C 18.960 21.664,18.942 21.595,18.810 21.422 C 18.512 21.031,17.956 20.900,17.536 21.122 M21.536 21.122 C 21.213 21.293,21.047 21.558,21.026 21.940 C 21.004 22.326,21.104 22.550,21.408 22.796 C 21.569 22.927,21.663 22.959,21.935 22.974 C 22.327 22.997,22.549 22.898,22.799 22.589 C 22.945 22.409,22.960 22.354,22.960 22.004 C 22.960 21.664,22.942 21.595,22.810 21.422 C 22.512 21.031,21.956 20.900,21.536 21.122 " fill="#1A1C1F" stroke="none" fill-rule="evenodd"></path></svg>
